public/assets/standards/sci-ai/shape-icon-3.svg

<svg width="53" height="50" viewBox="0 0 53 50" fill="none" xmlns="http://www.w3.org/2000/svg">
<path d="M18.8099 1.91449V3.03127C18.8099 4.08424 17.9483 4.94576 16.8954 4.94576H1.91449C0.86152 4.94576 0 5.80728 0 6.86025V36.9815C0 38.0345 0.86152 38.896 1.91449 38.896H38.7524C39.8054 38.896 40.6669 38.0345 40.6669 36.9815V1.91449C40.6669 0.86152 39.8054 0 38.7524 0H20.7243C19.6714 0 18.8099 0.86152 18.8099 1.91449Z" fill="#006D68"/>
<path d="M30.7914 13.0185V14.1353C30.7914 15.1882 29.9298 16.0498 28.8769 16.0498H13.896C12.843 16.0498 11.9815 16.9113 11.9815 17.9643V48.0855C11.9815 49.1385 12.843 50 13.896 50H50.734C51.7869 50 52.6484 49.1385 52.6484 48.0855V13.0185C52.6484 11.9655 51.7869 11.104 50.734 11.104H32.7058C31.6529 11.104 30.7914 11.9655 30.7914 13.0185Z" fill="#A7C553"/>
<path d="M47.3195 32.7534C47.3195 32.7534 40.6028 42.3258 32.3067 42.3258C24.0106 42.3258 17.2939 32.7534 17.2939 32.7534C17.2939 32.7534 24.0106 23.1809 32.3067 23.1809C40.6028 23.1809 47.3195 32.7534 47.3195 32.7534Z" fill="white"/>
<path d="M32.3067 37.9225C35.2144 37.9225 37.5716 35.5654 37.5716 32.6577C37.5716 29.75 35.2144 27.3928 32.3067 27.3928C29.399 27.3928 27.0419 29.75 27.0419 32.6577C27.0419 35.5654 29.399 37.9225 32.3067 37.9225Z" fill="#006D68"/>
</svg>

<svg xmlns="http://www.w3.org/2000/svg" width="53" height="50" fill="none" viewBox="0 0 53 50"><path fill="#006d68" d="M18.81 1.914v1.117a1.92 1.92 0 0 1-1.915 1.915H1.915A1.92 1.92 0 0 0 0 6.86v30.121a1.92 1.92 0 0 0 1.914 1.915h36.838a1.92 1.92 0 0 0 1.915-1.915V1.914A1.92 1.92 0 0 0 38.752 0H20.724a1.92 1.92 0 0 0-1.914 1.914"/><path fill="#a7c553" d="M30.791 13.019v1.116a1.92 1.92 0 0 1-1.914 1.915H13.896a1.92 1.92 0 0 0-1.915 1.914v30.122A1.92 1.92 0 0 0 13.897 50h36.838a1.92 1.92 0 0 0 1.914-1.914V13.019a1.92 1.92 0 0 0-1.914-1.915H32.706a1.92 1.92 0 0 0-1.915 1.915"/><path fill="#fff" d="M47.32 32.753s-6.717 9.573-15.013 9.573-15.013-9.573-15.013-9.573 6.717-9.572 15.013-9.572 15.012 9.572 15.012 9.572"/><path fill="#006d68" d="M32.307 37.923a5.265 5.265 0 1 0 0-10.53 5.265 5.265 0 0 0 0 10.53"/></svg>
